X: 1
T: Mrs. MacPherson of Inveran
T: 8 x 32R 3C (John Drewry, Bon Accord Book)
P: Mrs. MacPherson of Inveran
C: Scots Guards, arr. T. Traub 8-25-2004
C: (orig. 6 parts)
L: 1/8
M: 4/4
R: Reel
K: D
|: g |"D"f2 af dfAd|"D"f2 af "A"feef|"A"e2 ge ceAc|"A"e2 fg "D"fdd :| A|"D"d2 Ad dfAd|"D"d2 Ad "A"dccd|
"A"c2 Ac ceAc|"A"c2 Ac "D"eddA|"D"d2 Ad dfAd|"D"d2 Ad "A"dccd|"A"c2 AB cdef|gfea "D"fd d||
|: g|"D"f2 gf affg|affg "A"feef|e2 fe geef|geef "D"eddg :|a|"D"d2 Ad faef|dfed "A"dccd|
c2 Ac egdf|ceBc "D"eddA|"D"d2 Ad faef|dfed "A"dccd|c2 Bc Aceg|face "D"eddg |]
